X:13
T:London(?). ASH.13
M:4/4
L:1/8
Q:1/4=180
S:Harrison & Wall MS,Ashover,Derbyshire,1762-75
R:.Reel
O:England
A:Derbyshire
Z:vmp.Chris Partington.., 2003
K:A
eaec B>ABc | dcde fgaf | efec fgaf | ecBc (3AAA A2 :|!
|:ceAe Be^de | ceAe BE E2 | ceAe B^dfa | gfe^d ee e2 :|!
|:aaag fffe | ceAe BE E2 | aaag fffc | BABc (3AAA A2 :|!
|:CEAc FAdf | ecec BE E2 | CEAc FAdf | ecBc (3AAA A2 :|

